X:1
T:Title
%%score { 1 | ( 2 3 ) }
L:1/8
Q:1/4=100
M:6/8
K:Eb
V:1 treble nm="Grand Piano"
V:2 bass 
V:3 bass 
V:1
 G2 E E2 E | [EA]2 [Ec] [EB]2 [FA] | G2 E E>DE | [DF]6 | G2 E E2 E | [EA]2 [Ec] [EB]2 [FA] | %6
w: Mrs.~J.~F.~Knapp * * *||||||
 [EG]2 [EG] [DG]2 [DF] | E6 | G>A[EGB] c2 c | e2 c [GB]2 [EG] | [EG]>[FA][GB] c2 c | %11
w: |||||
 e2 c [EGB]2 [B,EG] | [B,EG]>[DF][G,E] [DF]2 [DF] | E2 G B3 | G>[A,DF][G,E] [A,DF]2 [A,DF] | %15
w: ||||
 [G,E]2 [A,CE] [G,B,E]3 |] %16
w: |
V:2
 [E,B,E]2 [E,G,] [E,G,]2 [E,G,] | [C,A,]2 [A,,A,] [E,G,]2 [D,B,] | %2
 [E,B,E]2 [E,G,] [G,B,]>[F,A,][E,G,B,] | [B,,B,]6 | [E,B,E]2 [E,G,] [E,G,]2 [E,G,] | %5
 [C,A,]2 [A,,A,] [E,G,]2 [D,B,] | [E,B,]2 [E,B,] [B,,A,]2 [B,,A,] | [E,G,]6 | .E3[K:treble] z3 | %9
 [A,CA]2 [A,EA][K:bass] [E,E]2 [E,B,] | [E,B,]2 [E,E][K:treble] [A,EA]2 [A,EA] | %11
 [A,CA]2 [A,EA][K:bass] E,2 E, | z z/ A,/C, [B,,B,]2 [B,,B,] | [E,G,]2 [E,B,E] [E,G,E]3 | %14
 [E,B,E]>B,,C, B,,2 B,, | E,2 E, E,3 |] %16
V:3
 x6 | x6 | x6 | x6 | x6 | x6 | x6 | x6 | [E,B,]->[E,B,F]E,[K:treble] [A,EA]2 [A,EA] | %9
 x3[K:bass] x3 | x3[K:treble] x3 | x3[K:bass] x3 | .B,,3 z3 | x6 | x6 | x6 |] %16

